svg/Pictogram/pictograms-aem-0067-wear_face_protection-face_shield.svg

<?xml version="1.0" encoding="ISO-8859-1" standalone="yes"?>
<svg height="304.014" width="304.015">
  <metadata>
    <rdf:RDF xmlns:cc="http://web.resource.org/cc/" xmlns:dc="http://purl.org/dc/elements/1.1/" xmlns:rdf="http://www.w3.org/1999/02/22-rdf-syntax-ns#">
      <cc:Work rdf:about="">
        <dc:title></dc:title>
        <dc:description></dc:description>
        <dc:subject>
          <rdf:Bag>
            <rdf:li></rdf:li>
          </rdf:Bag>
        </dc:subject>
        <dc:publisher>
          <cc:Agent rdf:about="http://www.unece.org/trans/danger/publi/ghs/pictograms.html">
            <dc:title>Source: UNECE GHS of Classification and Labeling of Chemicals, Source: AEM Pictorial Database, Source: AEM Pictorial Database, Source: AEM Pictorial Database, Source: AEM Pictorial Database</dc:title>
          </cc:Agent>
        </dc:publisher>
        <dc:creator>
          <cc:Agent>
            <dc:title></dc:title>
          </cc:Agent>
        </dc:creator>
        <dc:rights>
          <cc:Agent>
            <dc:title></dc:title>
          </cc:Agent>
        </dc:rights>
        <dc:date></dc:date>
        <dc:format>image/svg+xml</dc:format>
        <dc:type rdf:resource="http://purl.org/dc/dcmitype/StillImage"/>
        <cc:license rdf:resource="http://en.wikipedia.org/wiki/Public_domain"/>
        <dc:language>en</dc:language>
      </cc:Work>
    </rdf:RDF>
  </metadata>
  <defs><marker id="ArrowEnd" markerHeight="3" markerUnits="strokeWidth" markerWidth="4" orient="auto" refX="0" refY="5" viewBox="0 0 10 10"><path d="M 0 0 L 10 5 L 0 10 z"/></marker><marker id="ArrowStart" markerHeight="3" markerUnits="strokeWidth" markerWidth="4" orient="auto" refX="10" refY="5" viewBox="0 0 10 10"><path d="M 10 0 L 0 5 L 10 10 z"/></marker> </defs>
  <g id="g2958" transform="matrix(1.3532768,0,0,1.3532781,-53.207834,-52.192858)">
    <path d="M 248.081 115.127C 241.069 93.0964 222.726 71.8704 195.128 69.9984L 195.159 115.127L 248.081 115.127" style="stroke:none; fill-rule:evenodd; fill:#000000"/>
    <path d="M 251.288 134.721C 251.288 180.745 215.644 220.467 159.862 214.596C 152.706 233.256 143.386 235.065 116.901 234.143L 116.073 234.092L 116.073 110.096L 130.155 110.096C 131.12 107.916 132.261 105.717 133.382 103.862C 144.862 84.8624 163.804 72.4524 182.968 69.8704L 182.991 110.096L 191.956 110.096L 191.354 112.053C 191.288 112.276 189.425 118.334 186.679 127.288L 250.8 127.288C 251.12 129.811 251.288 132.299 251.288 134.721zM 159.917 204.745C 162.651 195.252 183.999 125.709 187.862 113.124L 119.097 113.124L 119.097 231.166C 148.483 232.077 153.046 228.588 159.917 204.745" style="stroke:none; fill-rule:evenodd; fill:#000000"/>
    <path d="M 182.464 119.514C 183.765 119.514 184.819 118.459 184.819 117.159C 184.819 115.858 183.765 114.799 182.464 114.799C 181.159 114.799 180.104 115.858 180.104 117.159C 180.104 118.459 181.159 119.514 182.464 119.514" style="stroke:none; fill-rule:evenodd; fill:#000000"/>
    <path d="M 92.1084 118.147L 94.4374 114.096L 76.4914 111.772L 87.5654 126.049L 89.7844 122.194L 104.663 130.784L 52.7334 160.756L 52.7264 166.159L 114.007 130.788L 92.1084 118.147" style="stroke:none; fill-rule:evenodd; fill:#000000"/>
    <path d="M 87.2304 160.815L 52.7414 180.713L 52.7334 186.108L 89.5504 164.862L 91.8234 168.819L 102.874 154.487L 84.9604 156.866L 87.2264 160.815" style="stroke:none; fill-rule:evenodd; fill:#000000"/>
    <path d="M 75.5934 190.998L 52.7264 204.221L 52.7304 209.608L 77.9764 195.014L 80.3154 198.959L 91.1554 184.471L 73.2804 187.108L 75.5934 191.002" style="stroke:none; fill-rule:evenodd; fill:#000000"/>
    <path d="M 29.6204 265.393L 2.62042 265.393" style="stroke:#000000; stroke-width:0.5; fill:none"/>
    <path d="M 38.6204 274.393L 38.6204 301.393" style="stroke:#000000; stroke-width:0.5; fill:none"/>
    <path d="M 29.6204 38.6204L 2.62042 38.6204" style="stroke:#000000; stroke-width:0.5; fill:none"/>
    <path d="M 38.6204 29.6204L 38.6204 2.62042" style="stroke:#000000; stroke-width:0.5; fill:none"/>
    <path d="M 274.394 38.6204L 301.394 38.6204" style="stroke:#000000; stroke-width:0.5; fill:none"/>
    <path d="M 265.394 29.6204L 265.394 2.62042" style="stroke:#000000; stroke-width:0.5; fill:none"/>
    <path d="M 274.394 265.393L 301.394 265.393" style="stroke:#000000; stroke-width:0.5; fill:none"/>
    <path d="M 265.394 274.393L 265.394 301.393" style="stroke:#000000; stroke-width:0.5; fill:none"/>
  </g>
</svg>

<svg viewBox="0 0 304.01 304.01"><g transform="matrix(1.35328 0 0 1.35328-53.21-52.19)" fill-rule="evenodd"><path d="m248.08 115.13c-7.01-22.03-25.355-43.26-52.953-45.13l.031 45.13h52.922"/><path d="m251.29 134.72c0 46.02-35.644 85.75-91.43 79.875-7.156 18.66-16.476 20.469-42.961 19.547l-.828-.051v-124h14.08c.965-2.18 2.106-4.379 3.227-6.234 11.48-19 30.422-31.41 49.586-33.992l.023 40.23h8.965l-.602 1.957c-.066.223-1.929 6.281-4.675 15.235h64.12c.32 2.523.488 5.01.488 7.433m-91.37 70.02c2.734-9.493 24.08-79.04 27.945-91.62h-68.765v118.04c29.386.911 33.949-2.578 40.82-26.421"/><path d="m182.46 119.51c1.301 0 2.355-1.055 2.355-2.355 0-1.301-1.054-2.36-2.355-2.36-1.305 0-2.36 1.059-2.36 2.36 0 1.3 1.055 2.355 2.36 2.355"/><path d="m92.11 118.15l2.329-4.051-17.946-2.324 11.07 14.277 2.219-3.855 14.879 8.59-51.93 29.972-.007 5.403 61.28-35.37-21.899-12.641"/><path d="m87.23 160.81l-34.489 19.898-.008 5.395 36.817-21.246 2.273 3.957 11.05-14.332-17.914 2.379 2.266 3.949"/><path d="m75.59 191l-22.867 13.223.004 5.387 25.25-14.594 2.339 3.945 10.84-14.488-17.875 2.637 2.313 3.894"/></g></svg>
